svgs/regular/bucket.svg

<svg xmlns="http://www.w3.org/2000/svg" viewBox="0 0 448 512"><!--! Font Awesome Pro 6.1.1 by @fontawesome - https://fontawesome.com License - https://fontawesome.com/license (Commercial License) Copyright 2022 Fonticons, Inc. --><path d="M96 160H48V152C48 68.05 116.1 0 200 0H248C331.9 0 400 68.05 400 152V160H352V152C352 94.56 305.4 48 248 48H200C142.6 48 96 94.56 96 152V160zM.0003 216C.0003 202.7 10.75 192 24 192H424C437.3 192 448 202.7 448 216C448 229.3 437.3 240 424 240H418L389.3 469.1C386.3 493.1 365.8 512 341.6 512H106.4C82.17 512 61.75 493.1 58.74 469.1L30 240H24C10.75 240 0 229.3 0 216H.0003zM106.4 464H341.6L369.6 240H78.37L106.4 464z"/></svg>

<svg xmlns="http://www.w3.org/2000/svg" viewBox="0 0 448 512"><!--! Font Awesome Pro 6.5.1 by @fontawesome - https://fontawesome.com License - https://fontawesome.com/license (Commercial License) Copyright 2023 Fonticons, Inc. --><path d="M96 152v8H48v-8C48 68.1 116.1 0 200 0h48c83.9 0 152 68.1 152 152v8H352v-8c0-57.4-46.6-104-104-104H200C142.6 48 96 94.6 96 152zM0 216c0-13.3 10.7-24 24-24H72.4 375.6 424c13.3 0 24 10.7 24 24s-10.7 24-24 24h-6L389.3 470c-3 24-23.4 42-47.6 42H106.4c-24.2 0-44.6-18-47.6-42L30 240H24c-13.3 0-24-10.7-24-24zm78.4 24l28 224H341.6l28-224H78.4z"/></svg>
